svg/fluentui-system-icons/ic_fluent_glance_horizontal_sparkles_24_regular.svg

<svg width="24" height="24" viewBox="0 0 24 24" fill="none" xmlns="http://www.w3.org/2000/svg">
<path d="M16.0883 6.41228C16.016 6.31886 15.9377 6.2298 15.8539 6.14569C15.5417 5.83255 15.1606 5.59666 14.741 5.45683L13.3632 5.00939C13.257 4.97196 13.165 4.90253 13.1 4.81068C13.0349 4.71883 13 4.60908 13 4.49656C13 4.38404 13.0349 4.27429 13.1 4.18244C13.165 4.09058 13.257 4.02116 13.3632 3.98372L14.741 3.53628C15.1547 3.39352 15.5299 3.15705 15.837 2.84537C16.1357 2.54224 16.3623 2.17595 16.5 1.77372L16.5114 1.73963L16.9592 0.362894C16.9967 0.256782 17.0662 0.164895 17.1581 0.0998993C17.25 0.0349035 17.3598 0 17.4724 0C17.5851 0 17.6949 0.0349035 17.7868 0.0998993C17.8787 0.164895 17.9482 0.256782 17.9857 0.362894L18.4335 1.73963C18.5727 2.15819 18.8077 2.53853 19.1198 2.85041C19.432 3.1623 19.8126 3.39715 20.2315 3.53628L21.6093 3.98372L21.6368 3.99061C21.743 4.02804 21.835 4.09747 21.9 4.18932C21.9651 4.28117 22 4.39092 22 4.50344C22 4.61596 21.9651 4.72571 21.9 4.81756C21.835 4.90942 21.743 4.97884 21.6368 5.01628L20.259 5.46372C19.8402 5.60285 19.4595 5.8377 19.1474 6.14959C18.8353 6.46147 18.6003 6.84181 18.461 7.26037L18.0132 8.63711C18.0092 8.64855 18.0048 8.65983 18 8.67093C17.9605 8.76273 17.8964 8.84212 17.8144 8.9001C17.7224 8.9651 17.6126 9 17.5 9C17.3874 9 17.2776 8.9651 17.1856 8.9001C17.0937 8.8351 17.0242 8.74322 16.9868 8.63711L16.539 7.26037C16.4378 6.95331 16.2851 6.66664 16.0883 6.41228ZM23.7829 10.2132L23.0175 9.9646C22.7848 9.8873 22.5733 9.75683 22.3999 9.58356C22.2265 9.41029 22.0959 9.199 22.0186 8.96646L21.7698 8.20161C21.749 8.14266 21.7104 8.09161 21.6593 8.0555C21.6083 8.01939 21.5473 8 21.4847 8C21.4221 8 21.3611 8.01939 21.31 8.0555C21.259 8.09161 21.2204 8.14266 21.1996 8.20161L20.9508 8.96646C20.875 9.19736 20.7467 9.40761 20.5761 9.58076C20.4055 9.75392 20.1971 9.88529 19.9672 9.9646L19.2018 10.2132C19.1428 10.234 19.0917 10.2725 19.0555 10.3236C19.0194 10.3746 19 10.4356 19 10.4981C19 10.5606 19.0194 10.6216 19.0555 10.6726C19.0917 10.7236 19.1428 10.7622 19.2018 10.783L19.9672 11.0316C20.2003 11.1093 20.412 11.2403 20.5855 11.4143C20.7589 11.5882 20.8893 11.8003 20.9661 12.0335L21.2149 12.7984C21.2357 12.8573 21.2743 12.9084 21.3254 12.9445C21.3764 12.9806 21.4374 13 21.5 13C21.5626 13 21.6236 12.9806 21.6746 12.9445C21.7257 12.9084 21.7643 12.8573 21.7851 12.7984L22.0339 12.0335C22.1113 11.801 22.2418 11.5897 22.4152 11.4164C22.5886 11.2432 22.8001 11.1127 23.0328 11.0354L23.7982 10.7868C23.8572 10.766 23.9083 10.7275 23.9445 10.6764C23.9806 10.6254 24 10.5644 24 10.5019C24 10.4394 23.9806 10.3784 23.9445 10.3274C23.9083 10.2764 23.8572 10.2378 23.7982 10.217L23.7829 10.2132ZM10.25 3.00195C11.2165 3.00195 12 3.78545 12 4.75195V9.25195C12 10.2185 11.2165 11.002 10.25 11.002H4.75C3.7835 11.002 3 10.2185 3 9.25195V4.75195C3 3.78545 3.7835 3.00195 4.75 3.00195H10.25ZM10.5 9.25195V4.75195C10.5 4.61388 10.3881 4.50195 10.25 4.50195H4.75C4.61193 4.50195 4.5 4.61388 4.5 4.75195V9.25195C4.5 9.39002 4.61193 9.50195 4.75 9.50195H10.25C10.3881 9.50195 10.5 9.39002 10.5 9.25195ZM7.23759 12.9838C8.20408 12.9838 8.98759 13.7673 8.98759 14.7338V19.2482C8.98759 20.2147 8.20408 20.9982 7.23759 20.9982H4.75C3.7835 20.9982 3 20.2147 3 19.2482V14.7338C3 13.7673 3.7835 12.9838 4.75 12.9838H7.23759ZM7.48759 19.2482V14.7338C7.48759 14.5957 7.37566 14.4838 7.23759 14.4838H4.75C4.61193 14.4838 4.5 14.5957 4.5 14.7338V19.2482C4.5 19.3862 4.61193 19.4982 4.75 19.4982H7.23759C7.37566 19.4982 7.48759 19.3862 7.48759 19.2482ZM19.2517 12.9982C20.2182 12.9982 21.0017 13.7817 21.0017 14.7482V19.2482C21.0017 20.2147 20.2182 20.9982 19.2517 20.9982H12.7517C11.7852 20.9982 11.0017 20.2147 11.0017 19.2482V14.7482L11.0075 14.6046C11.0805 13.7053 11.8335 12.9982 12.7517 12.9982H19.2517ZM19.5017 19.2482V14.7482C19.5017 14.6101 19.3898 14.4982 19.2517 14.4982H12.7517C12.6333 14.4982 12.5342 14.5804 12.5083 14.6908L12.5017 14.7482V19.2482C12.5017 19.3862 12.6136 19.4982 12.7517 19.4982H19.2517C19.3898 19.4982 19.5017 19.3862 19.5017 19.2482Z" fill="#212121"/>
</svg>

<svg xmlns="http://www.w3.org/2000/svg" width="24" height="24"><path d="M16.088 6.412a2.844 2.844 0 0 0-1.347-.955l-1.378-.448a.544.544 0 0 1 0-1.025l1.378-.448A2.839 2.839 0 0 0 16.5 1.774l.011-.034.448-1.377a.544.544 0 0 1 1.027 0l.447 1.377a2.835 2.835 0 0 0 1.799 1.796l1.377.448.028.007a.544.544 0 0 1 0 1.025l-1.378.448a2.839 2.839 0 0 0-1.798 1.796l-.448 1.377a.544.544 0 0 1-1.026 0l-.448-1.377a2.837 2.837 0 0 0-.45-.848Zm7.695 3.801-.766-.248a1.577 1.577 0 0 1-.998-.999l-.25-.764a.302.302 0 0 0-.57 0l-.248.764a1.576 1.576 0 0 1-.984.999l-.765.248a.302.302 0 0 0 0 .57l.765.249a1.578 1.578 0 0 1 1 1.002l.248.764a.302.302 0 0 0 .57 0l.249-.764a1.576 1.576 0 0 1 .999-.999l.765-.248a.302.302 0 0 0 0-.57l-.015-.004ZM10.25 3.002c.966 0 1.75.783 1.75 1.75v4.5a1.75 1.75 0 0 1-1.75 1.75h-5.5A1.75 1.75 0 0 1 3 9.252v-4.5c0-.967.784-1.75 1.75-1.75h5.5Zm.25 6.25v-4.5a.25.25 0 0 0-.25-.25h-5.5a.25.25 0 0 0-.25.25v4.5c0 .138.112.25.25.25h5.5a.25.25 0 0 0 .25-.25Zm-3.262 3.732c.966 0 1.75.783 1.75 1.75v4.514a1.75 1.75 0 0 1-1.75 1.75H4.75A1.75 1.75 0 0 1 3 19.248v-4.514c0-.967.784-1.75 1.75-1.75h2.488Zm.25 6.264v-4.514a.25.25 0 0 0-.25-.25H4.75a.25.25 0 0 0-.25.25v4.514c0 .138.112.25.25.25h2.488a.25.25 0 0 0 .25-.25Zm11.764-6.25c.966 0 1.75.784 1.75 1.75v4.5a1.75 1.75 0 0 1-1.75 1.75h-6.5a1.75 1.75 0 0 1-1.75-1.75v-4.5l.005-.143a1.75 1.75 0 0 1 1.745-1.607h6.5Zm.25 6.25v-4.5a.25.25 0 0 0-.25-.25h-6.5a.25.25 0 0 0-.244.193l-.006.057v4.5c0 .138.112.25.25.25h6.5a.25.25 0 0 0 .25-.25Z"/></svg>
